!!!COM: Distler, Hugo
!!!CDT: 1908-1942
!!!OPR@@DE: Der Jahrkreis
!!!OPR@EN: The Year Cycle
!!!OTL@@DE: Komm, heilger Geist, o Schoepfer du (2v)
!!!OTL@EN: Come, Holy Ghost, Creator, God
!!!OPS: 5
!!!ONM: 1
**kern	**text	**kern	**text
*part2	*part2	*part1	*part1
*staff2	*staff2	*staff1	*staff1
*Ialto	*	*Isoprn	*
*clefG2	*	*clefG2	*
*k[b- e-]	*	*k[b- e-]	*
*MM120	*	*MM120	*
*M4/4	*	*M4/4	*
*met(C)	*	*met(C)	*
2c	Zuend	2r	.
=1	=1	=1	=1
4d	uns	2f	Zuend
4c	ein	.	.
2B-	Licht	4g	uns
.	.	4f	ein
=2	=2	=2	=2
2e-,	an,	4e-	Licht
.	.	4f	an
4d	ein	4b-	im
4g	Licht	4cc	Ver-
=3	=3	=3	=3
4f	an	2b-,	stand,
8e-	im	.	.
8e-	Ver-	.	.
2d,	stand,	4b-	ent-
.	.	([4f	flamm
=4	=4	=4	=4
4f	ent-	8fL]	.
.	.	8gJ)	.
(4.c	flamm	4a	das
.	.	4b-	Herz
8d)	.	.	.
4en	das	4cc	in
=5	=5	=5	=5
4f	Herz	4dd	Lie-
4g	in	4dd	bes-
4.a	Lie-	4cc,	brand,
.	.	4cc	staerk
8a	bes-	.	.
=6	=6	=6	=6
2g,	brand,	4dd	un-
.	.	4cc	ser
4g	staerk	4g	schwa-
([4a	un-	4f	ches
=7	=7	=7	=7
8aL]	.	4a	Fleisch
8gJ)	.	.	.
*	*	*^		*
4f	ser	4b-	4a	und
4e-	schwa-	2cc	2g	Blut
*	*	*v	*v	*
4d	ches	.	.
=8	=8	=8	=8
4g	Fleisch	2r	.
4en	und	.	.
2d,	Blut	4f	durch
.	.	[4b-	dei-
=9	=9	=9	=9
4B-	durch	8b-]	.
.	.	8g	ner
4d	dei-	4f	Gott-
4c	ner	4g,	heit,
([4g	Gott-	8g	dei-
.	.	8a	ner
=10	=10	=10	=10
8gL]	.	4b-	Gott-
8f	.	.	.
8e-	.	4f	heit
8dJ)	.	.	.
(8cL	heit	4.e-	star-
8B-J)	.	.	.
[4c	star-	.	.
.	.	8e-	ken
=11	=11	=11	=11
4c]	.	1f	Mut.
*^		*	*	*
4B-	4B-	ken	.	.
2d	2B-	Mut.	.	.
*v	*v	*	*	*
==	==	==	==
*-	*-	*-	*-
!!!YOR: Bärenreiter-Ausgabe 676
!!!YOY: 1933
!!!EFL: 23/52
!!!URL-scan: https://imslp.eu/files/imglnks/euimg/7/7d/IMSLP834545-PMLP518834-5-jahrkreis-EA--original-paper-600dpi.pdf#page=45
!!!URL-imslp:https://imslp.org/wiki/Der_Jahrkreis,_Op.5_(Distler,_Hugo)#IMSLP834545
!!!system-decoration: [(s1,s2,s3)]
!!!ENC: Lucas Hofmann
!!!END: 2023/10/29
